!!!!SEGMENT: pl-kk--kk-i-385--006_anonim--tractus.krn
!!!cenid: 17xx:1986
!!!COM: Anonim
!!!COM-rismid: pe30004985
!!!CDT:
!!!CNT:
!!!OTL: Tractus
!!!PDT:
!!!AGN: Sacred
!!!SMS-siglum: PL-Kk
!!!SMS-shelfmark: Kk.I.385
!!!SMS-shelfwork: 006 W
!!!SMS-variant:
!!!SMS-altvar:
!!!NIFC-rismid: 1001143567
!!!URL-scan: http://repozytorium.nifc.pl/skany/pl-kk-nut--i-385
!!!ONB-nifc: UWAGA: numeracja zgodna z numeracją utworów w źródle
**kern	**text	**kern	**text	**kern	**text
*part3	*part3	*part2	*part2	*part1	*part1
*staff3	*staff3	*staff2	*staff2	*staff1	*staff1
*I"Tenore.	*	*I"Alto.	*	*I"Soprano.	*
*I'T.	*	*I'A.	*	*I'S.	*
*clefC4	*	*clefC3	*	*clefC1	*
*k[b-e-]	*	*k[b-e-]	*	*k[b-e-]	*
*B-:	*	*B-:	*	*B-:	*
*M3/2	*	*M3/2	*	*M3/2	*
=1	=1	=1	=1	=1	=1
*all\right	*	*all\right	*	*all\right	*
*2\right	*	*2\right	*	*2\right	*
!LO:TX:a:t=6.stum	!	!LO:TX:a:t=6.tum	!	!LO:TX:a:t=6.tum	!
!LO:TX:a:t=Tractus.	!	!LO:TX:a:t=Tractus	!	!LO:TX:a:t=Tractus.	!
!LO:TX:a:t=P:problem:znaki B- E-	!	!	!	!	!
1B-	Gau-	1.d	Gau-	2r	.
.	.	.	.	2dd\	Gau-
2A\	-de	.	.	2dd\	-de
=2	=2	=2	=2	=2	=2
1.B-	gau-	2d\	-de	4b-\	ga-
.	.	.	.	4a\	.
.	.	2g\	gau-	4b-\	.
.	.	.	.	4g\	.
.	.	2g\	-de	4b-\	.
.	.	.	.	4cc\	.
=3	=3	=3	=3	=3	=3
2A\	-de	4f#X\	gau-	1.dd	.
.	.	4e-\	.	.	.
2d\	gau-	4f#\	.	.	.
.	.	4d\	.	.	.
2d\	-de	4e-\	.	.	.
.	.	4f#\	.	.	.
=4	=4	=4	=4	=4	=4
4B-\	gau-	1g	.	2dd\	-de
4A\	.	.	.	.	.
4B-\	.	.	.	2b-\	gau-
4G\	.	.	.	.	.
4B-\	.	2g\	-de	2b-\	-de
4c\	.	.	.	.	.
=5	=5	=5	=5	=5	=5
1d	.	2r	.	4a\	gau-
.	.	.	.	4g\	.
.	.	2d\	gau-	4a\	.
.	.	.	.	4f#X\	.
2d\	-de	2d\	-de	4g\	.
.	.	.	.	4a\	.
!	!	!	!	!LO:LB:g=original	!
=6	=6	=6	=6	=6	=6
2r	.	4B-/	gau-	1b-	.
.	.	4A/	.	.	.
2G/	gau-	4B-/	.	.	.
.	.	4G/	.	.	.
!	!	!LO:LB:g=original	!	!	!
2G/	-de	4B-/	.	2b-\	-de
.	.	4c/	.	.	.
!LO:LB:g=original	!	!	!	!	!
=7	=7	=7	=7	=7	=7
4F#X/	gau-	2d\	.	2r	.
4En/	.	.	.	.	.
4F#/	.	2d\	-de	2dd\	gau-
4D/	.	.	.	.	.
4E/	.	2d\	Ma-	2dd\	-de
4F#/	.	.	.	.	.
=8	=8	=8	=8	=8	=8
2G/	.	2.g\	-ri-	4b-\	gau-
.	.	.	.	4a\	.
2G/	-de	.	.	4b-\	.
.	.	4f#X\	.	4g\	.
2G/	Ma-	4g\	.	4b-\	.
.	.	4a\	-a	4cc\	.
=9	=9	=9	=9	=9	=9
1A	-ri-	1f#X	vir-	2dd\	.
.	.	.	.	2dd\	-de
2A\	-a	2f#\	-go	2a\	Ma-
=10	=10	=10	=10	=10	=10
1G	vir-	2r	.	1b-	-ri-
.	.	2g\	gau-	.	.
2G/	-go	2g\	-de	2b-\	-a
=11	=11	=11	=11	=11	=11
2d\	gau-	4f#X\	gau-	2.a\	vir-
.	.	4e-\	.	.	.
2d\	-de	4f#\	.	.	.
.	.	4d\	.	4g\	.
2d\	Ma-	4e-\	.	4a\	.
.	.	4f#\	.	4b-\	.
!	!	!LO:LB:g=original	!	!LO:LB:g=original	!
=12	=12	=12	=12	=12	=12
1e-X	-ri-	2g\	.	2cc\	.
.	.	2g\	-de	2.g\	.
2c\	-a	2g\	Ma-	.	.
.	.	.	.	4a\	.
=13	=13	=13	=13	=13	=13
1.d	vir-	2.g\	-ri-	2b-\	.
.	.	.	.	1a	.
.	.	4a\	-a	.	.
.	.	2f#X\	Vir-	.	.
=14	=14	=14	=14	=14	=14
1.B-	-go	2g\	-go	1.g	-go
.	.	2g\	cun-	.	.
.	.	2fn\	-ctas	.	.
!LO:LB:g=original	!	!	!	!	!
=15	=15	=15	=15	=15	=15
2r	.	2.g\	he-	2r	.
2B-\	cun-	.	.	2b-\	cun-
.	.	4fn\	-re-	.	.
2A\	-ctas	2e-X\	-ses	2cc\	-ctas
=16	=16	=16	=16	=16	=16
2.B-\	he-	2.d\	he-	2.dd\	he-
4B-\	-re-	4e-X\	.	4cc\	-re-
2B-\	-ses	4f\	.	2b-\	-ses
.	.	4e-\	.	.	.
=17	=17	=17	=17	=17	=17
1d	cun-	2.d\	.	1.r	.
.	.	4e-X\	-re-	.	.
2c\	-ctas	2f\	-ses	.	.
!	!	!LO:LB:g=original	!	!	!
=18	=18	=18	=18	=18	=18
2.d\	he-	2r	.	2r	.
.	.	2f\	cun-	2f/	cun-
4c\	-re-	.	.	.	.
2B-\	-ses	2en\	-ctas	2g\	-ctas
=19	=19	=19	=19	=19	=19
2.A\	he-	2.f\	he-	2.a\	he-
4A\	-re-	4f\	-re-	4a\	-re-
2A\	-ses	2f\	-ses	2a\	-ses
!	!	!	!	!LO:LB:g=original	!
=20	=20	=20	=20	=20	=20
2d\	so-	2f\	so-	2b-\	so-
2d\	-la	2f\	-la	2f/	-la
2d\	in	2f\	in	2b-\	in
=21	=21	=21	=21	=21	=21
1G	te-	1g	te-	2b-\	te-
.	.	.	.	4g\	.
.	.	.	.	4a\	.
2G/	-re-	2g\	-re-	[2b-\	.
!LO:LB:g=original	!	!	!	!	!
=22	=22	=22	=22	=22	=22
1c	-mi-	1.f	-mi-	2b-\]	-re-
.	.	.	.	2b-\	-mi-
2c\	-sti	.	.	2a\	.
=23	=23	=23	=23	=23	=23
2B-\	que	1.f	.	1b-	-sti
2B-\	Ga-	.	.	.	.
2B-\	-bri-	.	.	2b-\	in
=24	=24	=24	=24	=24	=24
4A\	-e-	1.f	-sti	1cc	te-
4G\	.	.	.	.	.
4A\	.	.	.	.	.
4B-\	.	.	.	.	.
4c\	.	.	.	2cc\	-re
4A\	.	.	.	.	.
=25	=25	=25	=25	=25	=25
!	!	!LO:TX:a:t=1.	!	!	!
2B-\	.	1.r	.	1dd	mi-
2F/	-lis	.	.	.	.
2B-\	ar-	.	.	2dd\	-sti
=26	=26	=26	=26	=26	=26
!	!	!	!	!LO:N:vis=00	!
2.A\	-han-	2f\	que	00.r	.
!	!	!LO:LB:g=original	!	!	!
.	.	2f\	Ga-	.	.
4A\	-ge-	.	.	.	.
2A\	-li	2f\	-bri-	.	.
=27	=27	=27	=27	=27	=27
1B-	die-	4d\	-e-	.	.
.	.	4c\	.	.	.
.	.	4d\	.	.	.
.	.	4e-X\	.	.	.
2B-\	-tis	4f\	.	.	.
.	.	4d\	.	.	.
=28	=28	=28	=28	=28	=28
2c\	cre-	2e-X\	.	.	.
!LO:LB:g=original	!	!	!	!	!
2G/	.	2A/	-lis	.	.
[2c\	.	2e-\	ar-	.	.
=29	=29	=29	=29	=29	=29
2c\]	.	2.d\	-han-	.	.
1B-	.	.	.	.	.
.	.	4d\	-ge-	.	.
.	.	2en\	-li	.	.
=30	=30	=30	=30	=30	=30
1.A	-di-	2f\	dic-	1.r	.
.	.	2c\	-tis	.	.
.	.	[2f\	cre-	.	.
!	!	!	!	!LO:LB:g=original	!
=31	=31	=31	=31	=31	=31
1.G	.	2f\]	-di-	2b-\	Que
.	.	2d\	-dis-	2b-\	Ga-
.	.	2e-\	.	2b-\	-bri-
!	!	!LO:LB:g=original	!	!	!
=32	=32	=32	=32	=32	=32
1.F	-sti	1.f	-ti,	4a\	-e-
.	.	.	.	4g\	.
.	.	.	.	4a\	.
.	.	.	.	4b-\	.
.	.	.	.	4cc\	.
.	.	.	.	4a\	.
=33	=33	=33	=33	=33	=33
!LO:TX:a:t=2	!	!	!	!	!
!LO:N:vis=0	!	!	!	!	!
0.r	.	2f\	que	2b-\	.
.	.	2f\	ga-	2f/	-lis
.	.	2f\	-bri-	2b-\	ar-
=34	=34	=34	=34	=34	=34
.	.	2.e-X\	-e-	2.g\	-han-
.	.	4e-\	-lis	4f/	.
.	.	2e-\	ar-	4g/	.
.	.	.	.	4a/	.
=35	=35	=35	=35	=35	=35
2B-\	que	2.f\	-han-	2.b-\	.
2B-\	Ga-	.	.	.	.
.	.	4f\	-ge-	4b-\	-ge-
2B-\	-bri-	2f\	-li	2b-\	-li
=36	=36	=36	=36	=36	=36
2.G/	-e-	2g\	dic-	1b-	dic-
.	.	2d\	-tis	.	.
4A/	-lis	.	.	.	.
4B-\	die-	2g\	cre-	2g\	-tis
4B-\	-tis	.	.	.	.
!	!	!	!	!LO:LB:g=original	!
=37	=37	=37	=37	=37	=37
2c\	cre-	1.f	-di-	2a\	cre-
1d	-di-	.	.	1b-	-di-
!LO:LB:g=original	!	!	!	!	!
=38	=38	=38	=38	=38	=38
2e-X\	-di-	1.e-	-dis-	1b-	-di-
1c	.	.	.	.	.
.	.	.	.	2a\	.
=39	=39	=39	=39	=39	=39
1d	-sti	1d	-ti	1b-	-sti
2d\	dum	2g\	dum	2bn\	dum
!	!	!LO:LB:g=original	!	!	!
=40	=40	=40	=40	=40	=40
1e-X	vir-	1g	Vir-	1cc	vir-
2e-\	-go	2g\	-go	2cc\	-go
=41	=41	=41	=41	=41	=41
1d	De-	1g	Vir-	1bn	vir-
2e-X\	-um	2g\	-go	2g\	-go
=42	=42	=42	=42	=42	=42
1c	De-	2g\	De-	1.cc	De-
.	.	2g\	-um	.	.
2f\	-um	2f\	et	.	.
=43	=43	=43	=43	=43	=43
1d	et	1g	De-	1bn	-um
2e-X\	.	2g\	-um	2cc\	et
=44	=44	=44	=44	=44	=44
2.e-\	ho-	2.a-X\	ho-	2.cc\	ho-
4e-\	-mi-	4a-\	-mi-	4cc\	-mi-
2d\	-nem	2f\	-nem	2b-X\	-nem
!	!	!	!	!LO:LB:g=original	!
=45	=45	=45	=45	=45	=45
1c	ge-	1g	ge-	2.cc\	ge-
.	.	.	.	4b-X\	.
2c\	.	2f\	.	[2a-\	.
!LO:LB:g=original	!	!	!	!	!
=46	=46	=46	=46	=46	=46
2c\	-nu-	4f\	.	2a-\]	-nu-
.	.	4e-X\	-nu-	.	.
2c\	-is-	1d	-is-	1g	-i-
2Bn\	.	.	.	.	.
!	!	!LO:LB:g=original	!	!	!
=47	=47	=47	=47	=47	=47
2c\	-li	2en\	-ti	2g\	-sti
2B-X\	et	2e-X\	et	2g\	et
2B-\	post	2e-\	post	2g\	post
=48	=48	=48	=48	=48	=48
1A-X	par-	1f	par-	1a-	par-
2A-\	-tum	2f\	-tum	2f/	-tum
=49	=49	=49	=49	=49	=49
1G	Vir-	1e-X	vir-	1g	vir-
2G/	-go	2e-\	-go	2g\	-go
=50	=50	=50	=50	=50	=50
2E-X/	in-	2e-\	in-	2g\	in-
2G/	-vi-	2e-\	-vi-	2g\	-vi-
2E-/	-o-	2e-\	-o-	2g\	-o-
=51	=51	=51	=51	=51	=51
1B-	-la-	4d\	-la-	1f	-la-
.	.	4e-X\	.	.	.
.	.	2f\	.	.	.
2B-\	-ta	2d\	.	2b-\	-ta
!	!	!	!	!LO:LB:g=original	!
=52	=52	=52	=52	=52	=52
1.B-	per-	2g\	.	2b-\	in-
.	.	4f\	.	2dd\	-vi-
.	.	4g\	.	.	.
.	.	4f\	.	2b-\	-o-
.	.	4e-\	.	.	.
!	!	!LO:LB:g=original	!	!	!
=53	=53	=53	=53	=53	=53
1.B-	.	1d	.	2dd\	-la-
.	.	.	.	4dd\	.
.	.	.	.	4ee-X\	.
.	.	2f\	-ta	4dd\	.
.	.	.	.	4cc\	.
!LO:LB:g=original	!	!	!	!	!
=54	=54	=54	=54	=54	=54
1.B-	-man-	2B-/	in-	2b-\	.
.	.	2d\	-vi-	4b-\	.
.	.	.	.	4cc\	.
.	.	2B-/	-o-	4b-\	.
.	.	.	.	4a\	.
=55	=55	=55	=55	=55	=55
1.B-	.	2.e-X\	-la-	2.g\	.
.	.	4e-\	-ta	4a\	-ta
.	.	2f\	per-	2b-\	per-
=56	=56	=56	=56	=56	=56
1B-	-si-	2g\	-man-	2cc\	-man-
.	.	1f	-si-	1cc	-si-
2A\	.	.	.	.	.
=57	=57	=57	=57	=57	=57
2B-\	-sti	2f\	-sti	2b-\	-sti
2B-\	et	2f\	et	2dd\	et
2B-\	post	2f\	post	2dd\	post
!	!	!	!	!LO:LB:g=original	!
=58	=58	=58	=58	=58	=58
1c	par-	1e-X	par-	1cc	par-
2A\	-tum	2e-\	-tum	2cc\	-tum
=59	=59	=59	=59	=59	=59
2.d\	vir-	1d	vir-	1b-	vir-
4c\	.	.	.	.	.
2B-\	-go	2d\	-go	2b-\	-go
!	!	!LO:LB:g=original	!	!	!
=60	=60	=60	=60	=60	=60
!LO:TX:a:t=3	!	!	!	!	!
!LO:N:vis=0	!	!	!	!	!
0.r	.	2B-/	in-	2b-\	in-
.	.	2d\	-vi-	2b-\	-vi-
.	.	2B-/	-o-	2b-\	-o-
=61	=61	=61	=61	=61	=61
.	.	1e-X	-la-	1.b-	-la-
.	.	2e-\	-ta	.	.
=62	=62	=62	=62	=62	=62
1.r	.	1.e-X	per-	2cc\	.
.	.	.	.	4b-\	.
.	.	.	.	4cc\	.
.	.	.	.	4b-\	.
.	.	.	.	4a-X\	.
=63	=63	=63	=63	=63	=63
2B-\	in-	1.e-	.	2g\	.
2d\	-vi-	.	.	4g\	.
.	.	.	.	4a-X\	.
2B-\	-o-	.	.	4g\	.
.	.	.	.	4f\	.
!LO:LB:g=original	!	!	!	!LO:LB:g=original	!
=64	=64	=64	=64	=64	=64
2e-X\	-la-	1.e-	-man-	1e-X	.
4e-\	.	.	.	.	.
4f\	.	.	.	.	.
4e-\	.	.	.	2g\	.
4d\	.	.	.	.	.
=65	=65	=65	=65	=65	=65
2.c\	.	1.e-	.	2.a-X\	.
4c\	-ta	.	.	4a-\	-ta
2B-\	per-	.	.	2b-\	per-
=66	=66	=66	=66	=66	=66
2c\	-man-	1e-X	-si-	4a-X\	-man-
.	.	.	.	4g\	.
1B-	-si-	.	.	1f	-si-
.	.	2d\	.	.	.
=67	=67	=67	=67	=67	=67
1B-	-sti	1e-	-sti	2g\	-sti
.	.	.	.	1b-	pe-
2d\	per-	2f\	per-	.	.
=68	=68	=68	=68	=68	=68
2c\	-man-	2g\	-man-	2b-\	-man-
1c	-si-	1f	-si-	2b-\	-si-
.	.	.	.	2a\	.
=69	=69	=69	=69	=69	=69
1.d	-sti.	1.f	-sti.	1.b-	-sti
==	==	==	==	==	==
*-	*-	*-	*-	*-	*-
!!!system-decoration: [(s1,s2,s3)]
!!!ENC: Marta Lawrence
!!!END: 2021-02-14
!!!ENC: Mateusz Solarz
!!!END: 2021-02-09
